X: 7296
T: Clear The Track
R: hornpipe
M: 4/4
K: Cdorian
|:FD|B,DFB dfbf|dfBd FcAF|CFAc ecAc|BdcB AFEC|
B,DFB dfbf|dfBd FcAF|CFAc ecAc|B2d2B2:|
|:ef|gfec Acfa|bfdB fBdf|g=ece fdBd|ecdB AFAc|
gfec Acfa|bfdB fBdf|gabg fbAc|B2d2 B2:|

